X:1
T: Dumgoyne
C:
R:Strathspey
Q: 128
K:Em
M:4/4
L:1/16
|:B,2|E3G B3e g3e BG3|D3F A3c d3A FD3|E3G B3e g3e BA3|G3E FD3 B,E3 E3B,|
E3G B3e g3e BG3|D3F A3c d3A FD3|E3G B3e g3e BA3|((3G2F2E2) ((3F2E2D2) B,E3 E3f|
g3e BG3 E3G B3e|f3d AF3 D3F A3f|g3e BG3 E3G B3c|((3B2A2G2) F3B GE3 E3f|
((3g2f2e2) B3G E3G B3e|((3f2e2d2) A3F D3F AF3|E3G B3e g3e B3A|((3G2A2B2) F3B GE3 E2:|
